src/components/DocumentSelector/assets/icon-identity-hover.svg

<?xml version="1.0" encoding="UTF-8" standalone="no"?>
<svg width="82px" height="51px" viewBox="0 0 82 51" version="1.1" xmlns="http://www.w3.org/2000/svg" xmlns:xlink="http://www.w3.org/1999/xlink">
    <!-- Generator: Sketch 46.1 (44463) - http://www.bohemiancoding.com/sketch -->
    <title>national-id-card-hover</title>
    <desc>Created with Sketch.</desc>
    <defs></defs>
    <g id="Symbols" stroke="none" stroke-width="1" fill="none" fill-rule="evenodd">
        <g id="icons/id-card/hover" transform="translate(-19.000000, -39.000000)" fill-rule="nonzero" fill="#00C8A0">
            <g id="national-id-card-hover" transform="translate(19.000000, 39.000000)">
                <path d="M4,0 C1.790861,-1.3527075e-16 2.705415e-16,1.790861 0,4 L0,4 L0,46.9 C2.705415e-16,49.109139 1.790861,50.9 4,50.9 L77.3,50.9 C79.509139,50.9 81.3,49.109139 81.3,46.9 L81.3,4 C81.3,1.790861 79.509139,1.3527075e-16 77.3,0 L4,0 Z M21.1,37.3 L9.7,37.3 L9.9,36.1 C10.4,34.8 10.4,33.9 11.8,33.3 C13.6,32.5 16.5,31.7 17.5,30.8 C17.9292414,30.3832517 18.1493748,29.7962293 18.1,29.2 C18.1157617,28.9948523 18.0814441,28.7889467 18,28.6 C17.2,28.3 16.7,26.7 16.5,26.2 C16.2539013,26.1538692 16.0372357,26.0094254 15.9,25.8 C15,24.3 14.6,23.2 15.5,23.1 C15.425195,22.6372246 15.3917296,22.1687093 15.4,21.7 L14.9,20.2 C14.9598357,19.6832383 15.094582,19.1779397 15.3,18.7 C15.7,17.5 15.2,16.6 16.9,16.8 C16.9,16.8 16.7,15.1 21.3,14 C25.9,12.9 24.6,15.5 27,16.7 C27.2214739,17.3765517 27.0258033,18.1201002 26.5,18.6 C26.9749266,20.0856797 27.0779401,21.6652203 26.8,23.2 C27.6,23.3 27.3,24.4 26.4,25.9 C26.3,26.1 26,26.2 25.8,26.3 C25.6,26.8 25.1,28.4 24.3,28.7 C24.2185559,28.8889467 24.1842383,29.0948523 24.2,29.3 C24.1506252,29.8962293 24.3707586,30.4832517 24.8,30.9 C25.8,31.9 28.7,32.7 30.5,33.4 C31.9,34 31.9,34.9 32.4,36.2 L32.6,37.4 C32.5,37.3 21,37.3 21.1,37.3 Z M38.1,18.8 C38.0917845,18.6752867 38.1335805,18.5524372 38.2161482,18.4586104 C38.2987158,18.3647835 38.4152543,18.3077074 38.54,18.3 L68.54,18.3 C68.6751515,18.291059 68.8075899,18.3408593 68.9033653,18.4366347 C68.9991407,18.5324101 69.048941,18.6648485 69.04,18.8 L69.04,18.8 C69.0482155,18.9247133 69.0064195,19.0475628 68.9238518,19.1413896 C68.8412842,19.2352165 68.7247457,19.2922926 68.6,19.3 L38.6,19.3 C38.4648485,19.308941 38.3324101,19.2591407 38.2366347,19.1633653 C38.1408593,19.0675899 38.091059,18.9351515 38.1,18.8 L38.1,18.8 Z M38.1,25.5 C38.0917845,25.3752867 38.1335805,25.2524372 38.2161482,25.1586104 C38.2987158,25.0647835 38.4152543,25.0077074 38.54,25 L68.54,25 C68.6751515,24.991059 68.8075899,25.0408593 68.9033653,25.1366347 C68.9991407,25.2324101 69.048941,25.3648485 69.04,25.5 L69.04,25.5 C69.0482155,25.6247133 69.0064195,25.7475628 68.9238518,25.8413896 C68.8412842,25.9352165 68.7247457,25.9922926 68.6,26 L38.6,26 C38.332213,25.9808004 38.1191996,25.767787 38.1,25.5 L38.1,25.5 Z M38.1,32.1 C38.0917845,31.9752867 38.1335805,31.8524372 38.2161482,31.7586104 C38.2987158,31.6647835 38.4152543,31.6077074 38.54,31.6 L54,31.6 C54.1351515,31.591059 54.2675899,31.6408593 54.3633653,31.7366347 C54.4591407,31.8324101 54.508941,31.9648485 54.5,32.1 L54.5,32.1 C54.5082155,32.2247133 54.4664195,32.3475628 54.3838518,32.4413896 C54.3012842,32.5352165 54.1847457,32.5922926 54.06,32.6 L38.6,32.6 C38.4648485,32.608941 38.3324101,32.5591407 38.2366347,32.4633653 C38.1408593,32.3675899 38.091059,32.2351515 38.1,32.1 L38.1,32.1 Z" id="Shape"></path>
            </g>
        </g>
    </g>
</svg>

<svg width="82" height="51" viewBox="0 0 82 51" xmlns="http://www.w3.org/2000/svg">
    <title>national-id-card-hover</title>
    <path d="M4 0C1.79 0 0 1.79 0 4v42.9c0 2.21 1.79 4 4 4h73.3c2.21 0 4-1.79 4-4V4c0-2.21-1.79-4-4-4H4zm17.1 37.3H9.7l.2-1.2c.5-1.3.5-2.2 1.9-2.8 1.8-.8 4.7-1.6 5.7-2.5.43-.417.65-1.004.6-1.6.016-.205-.02-.41-.1-.6-.8-.3-1.3-1.9-1.5-2.4-.246-.046-.463-.19-.6-.4-.9-1.5-1.3-2.6-.4-2.7-.075-.463-.108-.93-.1-1.4l-.5-1.5c.06-.517.195-1.022.4-1.5.4-1.2-.1-2.1 1.6-1.9 0 0-.2-1.7 4.4-2.8 4.6-1.1 3.3 1.5 5.7 2.7.22.677.026 1.42-.5 1.9.475 1.486.578 3.065.3 4.6.8.1.5 1.2-.4 2.7-.1.2-.4.3-.6.4-.2.5-.7 2.1-1.5 2.4-.08.19-.116.395-.1.6-.05.596.17 1.183.6 1.6 1 1 3.9 1.8 5.7 2.5 1.4.6 1.4 1.5 1.9 2.8l.2 1.2c-.1-.1-11.6-.1-11.5-.1zm17-18.5c-.008-.125.034-.248.116-.34.083-.095.2-.152.324-.16h30c.135-.01.268.04.363.137.096.095.146.228.137.363.008.125-.034.248-.116.34-.083.095-.2.152-.324.16h-30c-.135.01-.268-.04-.363-.137-.096-.095-.146-.228-.137-.363zm0 6.7c-.008-.125.034-.248.116-.34.083-.095.2-.152.324-.16h30c.135-.01.268.04.363.137.096.095.146.228.137.363.008.125-.034.248-.116.34-.083.095-.2.152-.324.16h-30c-.268-.02-.48-.232-.5-.5zm0 6.6c-.008-.125.034-.248.116-.34.083-.095.2-.152.324-.16H54c.135-.01.268.04.363.137.096.095.146.228.137.363.008.125-.034.248-.116.34-.083.095-.2.152-.324.16H38.6c-.135.01-.268-.04-.363-.137-.096-.095-.146-.228-.137-.363z" fill-rule="nonzero" fill="#00C8A0" />
</svg>
